X:1
T:We Shall Sleep, but Not Forever
T:We Shall Sleep, but Not Forever
T:S. George Shipley
T:Mary Ann Pepper Kidder, 1858
T:Public Domain, Courtesy of the Cyber Hymnal™
T:Public Domain, Courtesy of the Cyber Hymnal™
C:S. George Shipley
Z:Public Domain,
Z:Courtesy of the Cyber Hymnal™
%%score ( 1 2 ) 3
L:1/8
Q:1/4=105
M:4/4
K:Eb
V:1 treble 
V:2 treble 
V:3 bass 
V:1
 E3 [EF] [EG][FA][GB][GB] | [Ac]4 [GB]3 z | [EG]3 [GB] [Ge][Ge][EB][EG] | [DF]6 z2 | %4
w: 1.~We shall sleep, but not for-|ev- er,|There will be a glor- ious|dawn!|
w: 2.~When we see a pre- cious|blos- som,|That we tend- ed with such|care,|
w: 3.~We shall sleep, but not for-|ev- er,|In the lone and si- lent|grave:|
 E3 [EF] [EG][EA][EB][GB] | [Ac]4 [GB]3 z | [EG]3 E [DF][DG][DA][B,D] | [B,E]6 z2 | %8
w: We shall meet to part, no,|nev- er,|On the res- ur- rect- ion|morn!|
w: Rude- ly tak- en from our|bo- som,|How our ach- ing hearts de-|spair!|
w: Bless- èd be the Lord that|tak- eth,|Bless- èd be the Lord that|gave.|
 [DF]3 [EG] [FA][FB][Gc][Ad] | [Ge]4 [GB]3 z | [EG]3 [GB] [Ge][Ge][EB][EG] | [DF]6 z2 | %12
w: From the deep- est cave of|o- cean,|From the des- ert and the|plain,|
w: Rounds its lit- tle grave we|lin- ger,|Till the set- ting sun is|low,|
w: In the bright e- ter- nal|ci- ty,|Death can nev- er, nev- er|come!|
 E3 [EF] [EG][EA][EB][GB] | [Ac]4 [GB]3 z | [EG]3 E [DF][DG][DA][B,D] | [B,E]6 z2 || %16
w: From the val- ley and the|mount- ain,|Count- less throngs shall rise a-|gain.|
w: Feel- ing all our hopes have|per- ished,|With the flower we cher- ished|so.|
w: In His own good time He’ll|call us,|From our rest, to home, sweet|home.|
"^Refrain" [DF]3 [EG] [FA][FB][Gc][Ad] | [Ge]4 [GB]3 z | [EG]3 [GB] [Ge][Ge][EB][EG] | [DF]6 z2 | %20
w: ||||
w: We shall sleep, but not for-|ev- er,|There will be a glor- ious|dawn!|
w: ||||
 E3 [EF] [EG][EA][EB][GB] | [Ac]4 [GB]3 z | [EG]3 E [DF][DG][DA][B,D] | [B,E]8 |] %24
w: ||||
w: We shall meet, to part, no,|nev- er,|On the re- sur- rect- ion|morn!|
w: ||||
V:2
 E3 x5 | x8 | x8 | x8 | E3 x5 | x8 | x3 E x4 | x8 | x8 | x8 | x8 | x8 | E3 x5 | x8 | x3 E x4 | %15
 x8 || x8 | x8 | x8 | x8 | E3 x5 | x8 | x3 E x4 | x8 |] %24
V:3
 [E,G,]3 [E,A,] [E,B,][E,B,][E,B,][E,E] | [E,E]4 [E,E]3 z | %2
 [E,B,]3 [E,B,] [E,B,][E,B,][G,B,][E,B,] | [B,,B,]6 z2 | [E,G,]3 [E,A,] [E,B,][F,B,][G,B,][E,E] | %5
 [A,E]4 [E,E]3 z | [E,B,]3 [E,G,] [B,,A,][B,,B,][B,,B,][B,,A,] | [E,G,]6 z2 | %8
 [B,,B,]3 [B,,B,] [B,,B,][A,D][G,E][F,B,] | [E,B,]4 [E,B,]3 z | %10
 [E,B,]3 [E,B,] [E,B,][E,B,][G,B,][E,B,] | [B,,B,]6 z2 | [E,G,]3 [E,A,] [E,B,][F,B,][G,B,][E,E] | %13
 [A,E]4 [E,E]3 z | [E,B,]3 [E,G,] [B,,A,][B,,B,][B,,B,][B,,A,] | [E,G,]6 z2 || %16
 [B,,B,]3 [B,,B,] [B,,B,][A,D][G,E][F,B,] | [E,B,]4 [E,B,]3 z | %18
 [E,B,]3 [E,B,] [E,B,][E,B,][G,B,][E,B,] | [B,,B,]6 z2 | [E,G,]3 [E,A,] [E,B,][F,B,][G,B,][E,E] | %21
 [A,E]4 [E,E]3 z | [E,B,]3 [E,G,] [B,,A,][B,,B,][B,,B,][B,,A,] | [E,G,]8 |] %24

